svg/aws-ec2-auto-scaling.svg

<?xml version="1.0" encoding="UTF-8"?>
<svg xmlns="http://www.w3.org/2000/svg" xmlns:xlink="http://www.w3.org/1999/xlink" width="32" height="32" viewBox="0 0 32 32">
<path fill-rule="evenodd" fill="rgb(83.137255%, 35.686275%, 2.745098%)" fill-opacity="1" d="M 30.613281 15.386719 L 25.273438 15.386719 L 27.824219 12.839844 L 26.878906 11.894531 L 23.152344 15.625 C 22.894531 15.886719 22.894531 16.304688 23.152344 16.566406 L 26.878906 20.292969 L 27.824219 19.347656 L 25.195312 16.722656 L 30.613281 16.722656 Z M 5.066406 11.894531 L 4.121094 12.839844 L 6.671875 15.386719 L 1.332031 15.386719 L 1.332031 16.722656 L 6.75 16.722656 L 4.121094 19.347656 L 5.066406 20.292969 L 8.792969 16.566406 C 9.050781 16.304688 9.050781 15.886719 8.792969 15.625 Z M 12.539062 19.488281 L 19.40625 19.488281 L 19.40625 12.621094 L 12.539062 12.621094 Z M 20.59375 11.875 L 21.828125 11.875 L 21.828125 13.207031 L 20.738281 13.207031 L 20.738281 14.214844 L 21.828125 14.214844 L 21.828125 15.550781 L 20.738281 15.550781 L 20.738281 16.558594 L 21.828125 16.558594 L 21.828125 17.890625 L 20.738281 17.890625 L 20.738281 18.902344 L 21.828125 18.902344 L 21.828125 20.234375 L 20.59375 20.234375 C 20.492188 20.421875 20.339844 20.574219 20.152344 20.675781 L 20.152344 21.910156 L 18.820312 21.910156 L 18.820312 20.820312 L 17.8125 20.820312 L 17.8125 21.910156 L 16.476562 21.910156 L 16.476562 20.820312 L 15.46875 20.820312 L 15.46875 21.910156 L 14.136719 21.910156 L 14.136719 20.820312 L 13.125 20.820312 L 13.125 21.910156 L 11.792969 21.910156 L 11.792969 20.675781 C 11.605469 20.574219 11.453125 20.421875 11.351562 20.234375 L 10.117188 20.234375 L 10.117188 18.902344 L 11.207031 18.902344 L 11.207031 17.890625 L 10.117188 17.890625 L 10.117188 16.558594 L 11.207031 16.558594 L 11.207031 15.550781 L 10.117188 15.550781 L 10.117188 14.214844 L 11.207031 14.214844 L 11.207031 13.207031 L 10.117188 13.207031 L 10.117188 11.875 L 11.351562 11.875 C 11.457031 11.6875 11.605469 11.535156 11.792969 11.433594 L 11.792969 10.199219 L 13.125 10.199219 L 13.125 11.289062 L 14.136719 11.289062 L 14.136719 10.199219 L 15.46875 10.199219 L 15.46875 11.289062 L 16.476562 11.289062 L 16.476562 10.199219 L 17.8125 10.199219 L 17.8125 11.289062 L 18.820312 11.289062 L 18.820312 10.199219 L 20.152344 10.199219 L 20.152344 11.433594 C 20.339844 11.535156 20.492188 11.6875 20.59375 11.875 M 16.640625 28.5 L 16.640625 23.082031 L 15.308594 23.082031 L 15.308594 28.5 L 12.714844 25.910156 L 11.773438 26.851562 L 15.5 30.582031 C 15.761719 30.839844 16.179688 30.839844 16.441406 30.582031 L 20.171875 26.851562 L 19.226562 25.910156 Z M 12.714844 6.199219 L 11.773438 5.253906 L 15.5 1.527344 C 15.761719 1.269531 16.179688 1.269531 16.441406 1.527344 L 20.171875 5.253906 L 19.226562 6.199219 L 16.640625 3.609375 L 16.640625 9.027344 L 15.308594 9.027344 L 15.308594 3.609375 Z M 12.714844 6.199219 "/>
</svg>

<svg role="img" viewBox="0 0 32 32" xmlns="http://www.w3.org/2000/svg"><path d="M30.613 15.387h-5.34l2.551-2.547-.945-.945-3.727 3.73a.67.67 0 0 0 0 .941l3.727 3.727.945-.945-2.629-2.625h5.418ZM5.066 11.895l-.945.945 2.55 2.547H1.333v1.336H6.75l-2.629 2.625.945.945 3.727-3.727a.67.67 0 0 0 0-.941Zm7.473 7.593h6.867v-6.867H12.54Zm8.055-7.613h1.234v1.332h-1.09v1.008h1.09v1.336h-1.09v1.008h1.09v1.332h-1.09v1.011h1.09v1.332h-1.234c-.102.188-.254.34-.442.442v1.234H18.82v-1.09h-1.008v1.09h-1.335v-1.09h-1.008v1.09h-1.332v-1.09h-1.012v1.09h-1.332v-1.234a1.1 1.1 0 0 1-.441-.442h-1.235v-1.332h1.09v-1.011h-1.09v-1.332h1.09V15.55h-1.09v-1.336h1.09v-1.008h-1.09v-1.332h1.235c.105-.187.253-.34.441-.441v-1.235h1.332v1.09h1.012V10.2h1.332v1.09h1.008V10.2h1.335v1.09h1.008V10.2h1.332v1.235c.188.101.34.254.442.441M16.64 28.5v-5.418h-1.332V28.5l-2.594-2.59-.942.942 3.727 3.73a.67.67 0 0 0 .941 0l3.73-3.73-.944-.942ZM12.715 6.2l-.942-.946L15.5 1.527a.67.67 0 0 1 .941 0l3.73 3.727-.944.945-2.586-2.59v5.418h-1.332V3.61Zm0 0" fill="rgb(83.137256%, 35.686275%, 2.745098%)" fill-rule="evenodd"/></svg>
